X:369
T: Zai yang ge
N: C1404
O: China, Shaanxi Ziyang
S: I, 70]
R: Shange. Nongtian laodong chang]
M: 2/4
L: 1/16
K: Ab
ceceb2c2 | b2c4c2 | b3cc2a2 | b4c4
a3bc4 | a2baf4
c2ccc2c2 | a2aacec2 | b2c4b2 | c3ba4
f2ffabf2 | e8

